X:1
T:'S\'i Do Mham\'o I/
M:6/8
C:Traditional
S:Tune, Kevin Conneff Text, A St\'or...
B:A St\'or 's a St\'or\'in
K:F
Gcc GAG|GFD FEF|Gcc GAG|GFD DCC|
Gcc GAG|GFD BAB|ccc BBG|GFD DCC||
GAB c2c|cdc c2B|GAB c2c|cdc BGF|
GAB c2c|cdc ccB|GFG B2G|GFD DCC||
W:
W: Curf\'a:
W:
W: 'S\'i do mham\'o \'i, 's\'i do mham\'o \'i
W: 's\'i do mham\'o \'i, 's\'i cailleach an airgid
W: 's\'i do mham\'o \'i, \'o Bhaile Iorrais Mh\'oir \'i
W: Chuirfeadh s\'i c\'oist\'i ar bh\'oithre Chois Fharraige
W:
W: D\'a bhfeicfe\'a an 'steam' 'ghabh\'ail siar T\'oin U\'i Loing
W: 'S na rotha\'i 'ghabh\'ail timpeall siar \'o na ceathr\'una\'i
W: Chaithfeadh s\'i 'n sti\'uir naoi n-uair ar a c\'ul
W: 'S n\'i choinneodh s\'i si\'ul le cailleach an airgid.
W:
W: Curf\'a
W:
W: Measann t\'u 'bp\'osfa' Measann t\'u 'bp\'osfa'
W: Measann t\'u 'bp\'osfa' cailleach an airgid
W: T\'a's \'am nach 'bp\'osfa', t\'a's a'm nach bp\'osfa'
W: Mar t\'a s\'i r\'o-\'og is d'\'olfadh s\'i'n t-airgead
W:
W: Curf\'a
W:
W: 'S gairid go bp\'osfa', 'S gairid go bp\'osfa',
W: 'S gairid go bp\'osfa', beirt ar a' mbaile seo
W: 'S gairid go bp\'osfa', 'S gairid go bp\'osfa',
W: Se\'an Sh\'eamais Mh\'oir is Mair\'ead N\'i Chathasaigh.
